!! 00000] TT[
!!!OTL: Xintianyou
!!!ARE: Asia, China,ÿShaanxi
!! Ethnic Group: Han
!! MM, ZHONGGUO MINGE XUAN S.226
!!!SCT: C1300
!!!YEM: Copyright 1995, estate of Helmut Schaffrath.
**kern
*ICvox
*Ivox
*M2/4
*k[b-e-]
*B-:
{8ddd
4ccc
8fff
=1
8gg
4.bb-
=2
8gg
8bb-
8ccc
8dd
=3
2cc}
=4
{8ddd
4ccc
8bb-
=5
8gg
4ff
8gg
=6
4bb-
8ccc
8bb-
=7
8gg
4.ff}
==
!!!AGN: Shange, Xintianyou. Biaoda aiqing
!! Sonderzeichen: v. d. Sprache abgeleitetes Verlassen der Tonhoehe
!!    Pinyin-Text der ersten Strophe vorhanden!
!!!ONB: ESAC (Essen Associative Code) Database: CHINA
!!!AMT: simple duple
!!!AIN: vox
!!!EED: Helmut Schaffrath
!!!EEV: 1.0
*-
!!!OTL: Zuotian wei ni ai dun da
!!!ARE: Asia, China,ÿHubei, Fangxian
!! I, 446
!!!SCT: C1454
!!!YEM: Copyright 1995, estate of Helmut Schaffrath.
**kern
*ICvox
*Ivox
!! Irregular meter.
*MX
*k[]
*C:
{8cc
8cc
8a
8cc
2dd
4ee
8a
8cc
8cc
4.a}
=1
{8a
8dd
8a
8cc
2cc
4dd
4cc
8a
4.a}
{8cc
8cc
8a
8cc
2dd
8ee
8cc
8dd
8cc
8cc
4.a}
{8cc
8dd
16cc
8.a
8cc
4a
8cc
8ee
4.dd}
{8a
8dd
8a
8cc
2cc
4dd
4cc
8a
4.g}
==
!!!AGN: Shange, Wujuzi
!!!ONB: ESAC (Essen Associative Code) Database: HUANG
!!!AMT: irregular
!!!AIN: vox
!!!EED: Helmut Schaffrath
!!!EEV: 1.0
*-
